src/assets/duotone/Weight.svg

<svg width="24" height="24" viewBox="0 0 24 24"  xmlns="http://www.w3.org/2000/svg">
<path opacity="0.4" d="M8 22H16C19 22 21 20 21 17V7C21 4 19 2 16 2H8C5 2 3 4 3 7V17C3 20 5 22 8 22Z" />
<path d="M17.5 7.99973C14.37 5.20973 9.63998 5.20973 6.49998 7.99973C6.35998 8.12973 6.32998 8.32973 6.42998 8.47973L8.60998 11.9797C8.66998 12.0697 8.76998 12.1397 8.86998 12.1497C8.97998 12.1697 9.08998 12.1297 9.16998 12.0597C10.78 10.6297 13.2 10.6297 14.81 12.0597C14.88 12.1197 14.97 12.1497 15.06 12.1497C15.08 12.1497 15.1 12.1497 15.11 12.1497C15.22 12.1297 15.32 12.0697 15.37 11.9797L17.55 8.47973C17.67 8.32973 17.64 8.12973 17.5 7.99973Z" />
</svg>

<?xml version="1.0" encoding="UTF-8"?>
<svg width="24" height="24" viewBox="0 0 24 24" xmlns="http://www.w3.org/2000/svg">
 <path d="m8 22h8c3 0 5-2 5-5v-10c0-3-2-5-5-5h-8c-3 0-5 2-5 5v10c0 3 2 5 5 5z" opacity=".4"/>
 <path d="m17.5 7.9997c-3.13-2.79-7.86-2.79-11 0-0.14 0.13-0.17 0.33-0.07 0.48l2.18 3.5c0.06 0.09 0.16 0.16 0.26 0.17 0.11 0.02 0.22-0.02 0.3-0.09 1.61-1.43 4.03-1.43 5.64 0 0.07 0.06 0.16 0.09 0.25 0.09h0.05c0.11-0.02 0.21-0.08 0.26-0.17l2.18-3.5c0.12-0.15 0.09-0.35-0.05-0.48z"/>
</svg>
